; generated by PrusaSlicer 2.1.1+win64 on 2023-10-13 at 12:12:01 UTC

; 

; external perimeters extrusion width = 0.45mm
; perimeters extrusion width = 0.45mm
; infill extrusion width = 0.45mm
; solid infill extrusion width = 0.45mm
; top infill extrusion width = 0.40mm
; first layer extrusion width = 0.42mm

M73 P0 R67
M73 Q0 S68
M201 X1000 Y1000 Z1000 E5000 ; sets maximum accelerations, mm/sec^2
M203 X200 Y200 Z12 E120 ; sets maximum feedrates, mm/sec
M204 P1250 R1250 T1250 ; sets acceleration (P, T) and retract acceleration (R), mm/sec^2
M205 X8.00 Y8.00 Z0.40 E4.50 ; sets the jerk limits, mm/sec
M205 S0 T0 ; sets the minimum extruding and travel feed rate, mm/sec
M107
M862.3 P "MK3S" ; printer model check
M862.1 P0.4 ; nozzle diameter check
M115 U3.8.1 ; tell printer latest fw version
G90 ; use absolute coordinates
M83 ; extruder relative mode
M104 S240 ; set extruder temp
M140 S85 ; set bed temp
M190 S85 ; wait for bed temp
M109 S240 ; wait for extruder temp
G28 W ; home all without mesh bed level
G80 ; mesh bed leveling
G1 Y-3.0 F1000.0 ; go outside print area
G92 E0.0
G1 X60.0 E9.0 F1000.0 ; intro line
M73 Q0 S68
M73 P0 R67
G1 X100.0 E12.5 F1000.0 ; intro line
G92 E0.0
M221 S95
G21 ; set units to millimeters
G90 ; use absolute coordinates
M83 ; use relative distances for extrusion
M900 K45 ; Filament gcode
;BEFORE_LAYER_CHANGE
G92 E0.0
;0.2


G1 E-1.40000 F2100.00000
G1 Z0.200 F10800.000
;AFTER_LAYER_CHANGE
;0.2
G1 Z0.400
G1 X96.399 Y88.886
G1 Z0.200
G1 E1.40000 F2100.00000
M204 S1000
G1 F1200
G1 X97.376 Y88.122 E0.03888
G1 X98.605 Y87.588 E0.04200
G1 X99.930 Y87.394 E0.04200
G1 X150.006 Y87.394 E1.57008
G1 X150.953 Y87.484 E0.02984
G1 X151.862 Y87.746 E0.02967
G1 X152.711 Y88.176 E0.02984
G1 X153.462 Y88.752 E0.02967
G1 X154.093 Y89.457 E0.02967
G1 X154.585 Y90.272 E0.02984
G1 X154.915 Y91.159 E0.02967
G1 X155.076 Y92.097 E0.02984
G1 X155.073 Y117.902 E0.80911
G1 X154.834 Y119.079 E0.03766
G1 X154.326 Y120.168 E0.03766
G1 X153.577 Y121.107 E0.03766
G1 X152.624 Y121.847 E0.03784
G1 X151.395 Y122.380 E0.04200
G1 X150.070 Y122.575 E0.04200
G1 X99.844 Y122.573 E1.57480
G1 X98.592 Y122.377 E0.03974
G1 X97.427 Y121.877 E0.03974
G1 X96.421 Y121.105 E0.03974
G1 X95.638 Y120.109 E0.03974
G1 X95.114 Y118.912 E0.04096
G1 X94.911 Y117.616 E0.04113
G1 X94.917 Y92.206 E0.79672
G1 X95.135 Y90.985 E0.03888
G1 X95.639 Y89.858 E0.03870
G1 X96.362 Y88.933 E0.03682
G1 F8640
G1 X97.376 Y88.122 E-0.29977
G1 X98.605 Y87.588 E-0.30928
G1 X99.930 Y87.394 E-0.30929
G1 X101.713 Y87.394 E-0.41166
G1 E-0.07000 F2100.00000
G1 Z0.400 F10800.000
G1 X97.530 Y88.419
G1 Z0.200
G1 E1.40000 F2100.00000
G1 F1200
G1 X99.453 Y87.771 E0.06364
G1 X150.486 Y87.774 E1.60010
G1 X151.435 Y87.958 E0.03029
G1 X152.343 Y88.349 E0.03101
G1 X153.562 Y89.373 E0.04990
G1 X154.353 Y90.590 E0.04551
G1 X154.713 Y91.973 E0.04481
G1 X154.713 Y117.994 E0.81587
G1 X154.415 Y119.217 E0.03947
G1 X154.006 Y120.033 E0.02862
G1 X153.108 Y121.045 E0.04242
G1 X152.470 Y121.549 E0.02550
G1 X150.547 Y122.198 E0.06363
G1 X99.490 Y122.198 E1.60084
G1 X98.267 Y121.899 E0.03947
G1 X97.451 Y121.490 E0.02862
G1 X96.439 Y120.592 E0.04242
G1 X95.935 Y119.954 E0.02550
G1 X95.287 Y118.031 E0.06363
G1 X95.287 Y91.974 E0.81698
G1 X95.585 Y90.751 E0.03947
G1 X95.994 Y89.935 E0.02862
G1 X96.892 Y88.923 E0.04242
G1 X97.483 Y88.457 E0.02362
G1 X97.716 Y88.753 F10800.000
G1 F1200
G1 X99.484 Y88.148 E0.05860
G1 X150.468 Y88.151 E1.59855
G1 X151.341 Y88.324 E0.02791
G1 X152.166 Y88.683 E0.02823
G1 X153.297 Y89.642 E0.04647
G1 X153.996 Y90.716 E0.04018
G1 X154.336 Y91.998 E0.04157
G1 X154.336 Y117.970 E0.81436
G1 X154.055 Y119.104 E0.03664
G1 X153.682 Y119.840 E0.02585
G1 X152.839 Y120.780 E0.03960
G1 X152.263 Y121.232 E0.02295
G1 X150.516 Y121.821 E0.05778
G1 X99.514 Y121.821 E1.59914
G1 X98.380 Y121.539 E0.03664
G1 X97.644 Y121.166 E0.02585
G1 X96.704 Y120.323 E0.03960
G1 X96.252 Y119.747 E0.02295
G1 X95.664 Y118.000 E0.05778
G1 X95.664 Y91.998 E0.81529
G1 X95.945 Y90.864 E0.03664
G1 X96.318 Y90.128 E0.02585
G1 X97.161 Y89.188 E0.03960
G1 X97.668 Y88.790 E0.02021
G1 X97.900 Y89.087 F10800.000
G1 F1200
G1 X97.944 Y89.053 E0.00173
G1 X99.515 Y88.525 E0.05197
G1 X150.448 Y88.528 E1.59699
G1 X151.246 Y88.689 E0.02550
G1 X151.988 Y89.017 E0.02545
G1 X153.030 Y89.910 E0.04302
G1 X153.663 Y90.894 E0.03669
G1 X153.959 Y92.022 E0.03655
G1 X153.959 Y117.946 E0.81285
G1 X153.695 Y118.990 E0.03376
G1 X153.358 Y119.645 E0.02308
G1 X152.571 Y120.515 E0.03679
G1 X152.057 Y120.915 E0.02043
G1 X150.486 Y121.443 E0.05197
G1 X99.538 Y121.443 E1.59744
G1 X98.494 Y121.179 E0.03376
G1 X97.840 Y120.842 E0.02308
G1 X96.970 Y120.055 E0.03679
G1 X96.569 Y119.541 E0.02043
G1 X96.041 Y117.970 E0.05197
G1 X96.041 Y92.022 E0.81358
G1 X96.305 Y90.978 E0.03376
G1 X96.642 Y90.324 E0.02308
G1 X97.429 Y89.454 E0.03679
G1 X97.853 Y89.124 E0.01682
G1 X98.149 Y89.371 F10800.000
G1 F1200
G1 X99.545 Y88.902 E0.04619
G1 X150.429 Y88.905 E1.59542
G1 X151.148 Y89.054 E0.02304
G1 X151.808 Y89.349 E0.02266
G1 X152.762 Y90.177 E0.03960
G1 X153.306 Y91.021 E0.03149
G1 X153.582 Y92.047 E0.03331
G1 X153.582 Y117.922 E0.81129
G1 X153.335 Y118.874 E0.03082
G1 X153.036 Y119.448 E0.02030
G1 X152.304 Y120.247 E0.03399
G1 X151.851 Y120.597 E0.01793
G1 X150.455 Y121.066 E0.04619
G1 X99.562 Y121.066 E1.59571
G1 X98.611 Y120.820 E0.03082
G1 X98.037 Y120.520 E0.02030
G1 X97.237 Y119.788 E0.03399
G1 X96.887 Y119.336 E0.01793
G1 X96.418 Y117.939 E0.04619
G1 X96.418 Y92.046 E0.81185
G1 X96.665 Y91.095 E0.03082
G1 X96.964 Y90.521 E0.02030
G1 X97.696 Y89.721 E0.03399
G1 X98.101 Y89.408 E0.01605
G1 X98.330 Y89.707 F10800.000
G1 F1200
G1 X99.576 Y89.279 E0.04130
G1 X150.410 Y89.283 E1.59386
G1 X151.013 Y89.407 E0.01933
G1 X151.628 Y89.681 E0.02110
G1 X152.492 Y90.441 E0.03609
G1 X152.972 Y91.198 E0.02809
G1 X153.205 Y92.071 E0.02835
G1 X153.205 Y117.897 E0.80974
G1 X152.977 Y118.755 E0.02783
G1 X152.715 Y119.248 E0.01752
G1 X152.039 Y119.979 E0.03121
G1 X151.647 Y120.278 E0.01546
G1 X150.424 Y120.689 E0.04045
G1 X99.587 Y120.689 E1.59396
G1 X98.729 Y120.461 E0.02783
G1 X98.236 Y120.199 E0.01752
G1 X97.505 Y119.523 E0.03121
G1 X97.206 Y119.131 E0.01546
G1 X96.795 Y117.908 E0.04045
G1 X96.795 Y92.071 E0.81010
G1 X97.023 Y91.214 E0.02783
G1 X97.285 Y90.720 E0.01752
G1 X97.961 Y89.989 E0.03121
G1 X98.282 Y89.744 E0.01269
G1 X98.555 Y90.009 F10800.000
G1 F1200
G1 X99.606 Y89.656 E0.03476
G1 X150.389 Y89.660 E1.59226
G1 X150.914 Y89.771 E0.01681
G1 X151.445 Y90.012 E0.01829
G1 X152.222 Y90.705 E0.03263
G1 X152.616 Y91.325 E0.02306
G1 X152.828 Y92.097 E0.02510
G1 X152.828 Y117.871 E0.80812
M73 Q1 S67
M73 P1 R66
G1 X152.620 Y118.633 E0.02477
G1 X152.396 Y119.046 E0.01474
G1 X151.775 Y119.709 E0.02845
G1 X151.445 Y119.959 E0.01301
G1 X150.394 Y120.312 E0.03476
G1 X99.613 Y120.312 E1.59219
G1 X98.851 Y120.104 E0.02477
G1 X98.438 Y119.880 E0.01474
G1 X97.775 Y119.260 E0.02845
G1 X97.525 Y118.929 E0.01301
G1 X97.172 Y117.878 E0.03476
G1 X97.172 Y92.097 E0.80833
G1 X97.380 Y91.335 E0.02477
G1 X97.604 Y90.922 E0.01474
G1 X98.225 Y90.260 E0.02845
G1 X98.508 Y90.045 E0.01113
G1 F8640
G1 X99.606 Y89.656 E-0.26916
G1 X104.201 Y89.656 E-1.06084
G1 E-0.07000 F2100.00000
G1 Z0.400 F10800.000
G1 X99.637 Y90.033
G1 Z0.200
G1 E1.40000 F2100.00000
G1 F1200
G1 X150.368 Y90.037 E1.59064
G1 X150.811 Y90.134 E0.01423
G1 X151.259 Y90.342 E0.01548
G1 X151.950 Y90.967 E0.02920
G1 X152.262 Y91.455 E0.01818
G1 X152.451 Y92.124 E0.02179
G1 X152.451 Y117.844 E0.80643
G1 X152.263 Y118.508 E0.02162
G1 X152.078 Y118.841 E0.01196
G1 X151.514 Y119.437 E0.02573
G1 X151.243 Y119.639 E0.01059
G1 X150.363 Y119.935 E0.02912
G1 X99.640 Y119.935 E1.59038
G1 X98.976 Y119.747 E0.02162
G1 X98.643 Y119.563 E0.01196
G1 X98.047 Y118.998 E0.02573
G1 X97.845 Y118.727 E0.01059
G1 X97.549 Y117.847 E0.02912
G1 X97.549 Y92.124 E0.80653
G1 X97.737 Y91.460 E0.02162
G1 X97.922 Y91.127 E0.01196
G1 X98.486 Y90.531 E0.02573
G1 X98.757 Y90.329 E0.01059
G1 X99.580 Y90.052 E0.02724
G1 X99.668 Y90.410 F10800.000
G1 F1200
G1 X150.346 Y90.414 E1.58897
G1 X150.705 Y90.497 E0.01157
G1 X151.071 Y90.670 E0.01268
G1 X151.676 Y91.227 E0.02580
G1 X151.908 Y91.589 E0.01347
G1 X152.074 Y92.152 E0.01841
G1 X152.074 Y117.816 E0.80467
G1 X151.909 Y118.378 E0.01838
G1 X151.763 Y118.633 E0.00919
G1 X151.254 Y119.163 E0.02305
G1 X151.044 Y119.318 E0.00819
G1 X150.332 Y119.558 E0.02355
G1 X99.668 Y119.558 E1.58854
G1 X99.106 Y119.393 E0.01838
G1 X98.851 Y119.248 E0.00919
G1 X98.321 Y118.738 E0.02305
G1 X98.166 Y118.528 E0.00819
G1 X97.926 Y117.816 E0.02355
G1 X97.926 Y92.152 E0.80468
G1 X98.091 Y91.590 E0.01838
G1 X98.237 Y91.335 E0.00919
G1 X98.746 Y90.805 E0.02305
G1 X98.956 Y90.650 E0.00819
G1 X99.611 Y90.429 E0.02167
G1 X99.154 Y90.973 F10800.000
G1 F1200
G1 X99.699 Y90.787 E0.01806
G1 X150.324 Y90.791 E1.58731
G1 X150.562 Y90.846 E0.00767
G1 X150.882 Y90.997 E0.01109
G1 X151.401 Y91.485 E0.02233
G1 X151.556 Y91.726 E0.00898
G1 X151.697 Y92.182 E0.01495
G1 X151.697 Y117.787 E0.80282
G1 X151.556 Y118.244 E0.01500
G1 X151.451 Y118.420 E0.00643
G1 X150.996 Y118.887 E0.02044
G1 X150.846 Y118.996 E0.00580
G1 X150.301 Y119.181 E0.01806
G1 X99.698 Y119.181 E1.58664
G1 X99.241 Y119.040 E0.01500
G1 X99.064 Y118.936 E0.00643
G1 X98.597 Y118.481 E0.02044
G1 X98.488 Y118.331 E0.00580
G1 X98.303 Y117.785 E0.01806
G1 X98.303 Y92.182 E0.80278
G1 X98.444 Y91.725 E0.01500
G1 X98.549 Y91.548 E0.00643
G1 X99.004 Y91.081 E0.02044
G1 X99.105 Y91.008 E0.00392
G1 X99.348 Y91.296 F10800.000
G1 F1200
G1 X99.731 Y91.164 E0.01270
G1 X150.302 Y91.168 E1.58562
G1 X150.419 Y91.196 E0.00377
G1 X150.692 Y91.325 E0.00947
G1 X151.123 Y91.741 E0.01880
G1 X151.207 Y91.869 E0.00479
G1 X151.320 Y92.213 E0.01136
G1 X151.320 Y117.755 E0.80083
G1 X151.206 Y118.101 E0.01144
G1 X151.144 Y118.202 E0.00371
G1 X150.741 Y118.609 E0.01795
G1 X150.652 Y118.672 E0.00343
G1 X150.269 Y118.804 E0.01270
G1 X99.729 Y118.804 E1.58464
G1 X99.383 Y118.690 E0.01144
G1 X99.282 Y118.628 E0.00371
G1 X98.875 Y118.226 E0.01795
G1 X98.812 Y118.136 E0.00343
G1 X98.680 Y117.753 E0.01270
G1 X98.680 Y92.213 E0.80079
G1 X98.794 Y91.867 E0.01144
G1 X98.856 Y91.766 E0.00371
G1 X99.299 Y91.331 E0.01947
G1 X99.537 Y91.623 F10800.000
G1 F1200
G1 X99.764 Y91.541 E0.00757
G1 X150.250 Y91.541 E1.58293
G1 X150.500 Y91.651 E0.00856
G1 X150.843 Y91.994 E0.01522
G1 X150.943 Y92.249 E0.00856
G1 X150.943 Y117.720 E0.79863
G1 X150.861 Y117.947 E0.00757
G1 X150.490 Y118.327 E0.01666
G1 X150.236 Y118.427 E0.00856
G1 X99.764 Y118.427 E1.58249
G1 X99.537 Y118.345 E0.00757
G1 X99.157 Y117.974 E0.01666
G1 X99.057 Y117.720 E0.00856
G1 X99.057 Y92.249 E0.79863
G1 X99.157 Y91.994 E0.00856
G1 X99.491 Y91.660 E0.01480
G1 X99.737 Y91.947 F10800.000
G1 F1200
G1 X99.806 Y91.918 E0.00235
G1 X150.194 Y91.918 E1.57986
G1 X150.263 Y91.947 E0.00235
G1 X150.537 Y92.221 E0.01215
G1 X150.566 Y92.290 E0.00235
G1 X150.566 Y117.678 E0.79600
G1 X150.537 Y117.747 E0.00235
G1 X150.263 Y118.021 E0.01215
G1 X150.194 Y118.050 E0.00235
G1 X99.806 Y118.050 E1.57986
G1 X99.737 Y118.021 E0.00235
G1 X99.463 Y117.747 E0.01215
G1 X99.434 Y117.678 E0.00235
G1 X99.434 Y92.290 E0.79600
G1 X99.463 Y92.221 E0.00235
G1 X99.695 Y91.990 E0.01027
G1 X99.922 Y92.296 F10800.000
G1 F1200
G1 X150.078 Y92.296 E1.57261
G1 X150.189 Y92.406 E0.00490
G1 X150.189 Y117.562 E0.78876
G1 X150.078 Y117.673 E0.00490
G1 X99.922 Y117.673 E1.57261
G1 X99.811 Y117.562 E0.00490
G1 X99.811 Y92.406 E0.78876
M73 Q3 S66
M73 P3 R65
G1 X99.879 Y92.338 E0.00302
G1 X100.210 Y92.694 F10800.000
G1 F1200
G1 X149.790 Y92.694 E1.55455
G1 X149.790 Y117.274 E0.77069
G1 X100.210 Y117.274 E1.55455
G1 X100.210 Y92.754 E0.76881
G1 X100.605 Y92.755 F10800.000
G1 X100.587 Y93.071
G1 F1200
G1 X149.413 Y93.071 E1.53090
G1 X149.413 Y116.897 E0.74704
G1 X100.587 Y116.897 E1.53090
G1 X100.587 Y93.131 E0.74516
G1 F8640
G1 X106.347 Y93.124 E-1.33000
G1 E-0.07000 F2100.00000
G1 Z0.400 F10800.000
G1 X141.985 Y111.789
G1 Z0.200
G1 E1.40000 F2100.00000
G1 F1200
G1 X142.219 Y111.449 E0.01294
G1 X142.528 Y111.176 E0.01294
G1 X142.893 Y110.984 E0.01294
G1 X143.294 Y110.885 E0.01294
G1 X143.706 Y110.885 E0.01294
G1 X144.107 Y110.984 E0.01294
G1 X144.472 Y111.176 E0.01294
G1 X144.781 Y111.449 E0.01294
G1 X145.015 Y111.789 E0.01294
G1 X145.162 Y112.175 E0.01294
G1 X145.212 Y112.584 E0.01294
G1 X145.162 Y112.994 E0.01294
G1 X145.015 Y113.380 E0.01294
G1 X144.781 Y113.719 E0.01294
G1 X144.472 Y113.993 E0.01294
G1 X144.107 Y114.184 E0.01294
G1 X143.706 Y114.283 E0.01294
G1 X143.294 Y114.283 E0.01294
G1 X142.893 Y114.184 E0.01294
G1 X142.528 Y113.993 E0.01294
G1 X142.219 Y113.719 E0.01294
G1 X141.985 Y113.380 E0.01294
G1 X141.838 Y112.994 E0.01294
G1 X141.788 Y112.584 E0.01294
G1 X141.838 Y112.175 E0.01294
G1 X141.963 Y111.845 E0.01106
G1 X141.771 Y111.451 F10800.000
G1 X141.648 Y111.612
G1 F1200
G1 X141.935 Y111.197 E0.01581
G1 X142.312 Y110.863 E0.01581
G1 X142.758 Y110.629 E0.01581
G1 X143.248 Y110.508 E0.01581
G1 X143.752 Y110.508 E0.01581
G1 X144.242 Y110.629 E0.01581
G1 X144.688 Y110.863 E0.01581
G1 X145.065 Y111.197 E0.01581
G1 X145.352 Y111.612 E0.01581
G1 X145.531 Y112.084 E0.01581
G1 X145.591 Y112.584 E0.01581
G1 X145.531 Y113.085 E0.01581
G1 X145.352 Y113.556 E0.01581
G1 X145.065 Y113.971 E0.01581
G1 X144.688 Y114.305 E0.01581
G1 X144.242 Y114.540 E0.01581
G1 X143.752 Y114.660 E0.01581
G1 X143.248 Y114.660 E0.01581
G1 X142.758 Y114.540 E0.01581
G1 X142.312 Y114.305 E0.01581
G1 X141.935 Y113.971 E0.01581
G1 X141.648 Y113.556 E0.01581
G1 X141.469 Y113.085 E0.01581
G1 X141.409 Y112.584 E0.01581
G1 X141.469 Y112.084 E0.01581
G1 X141.627 Y111.668 E0.01393
G1 F8640
G1 X141.935 Y111.197 E-0.12991
G1 X142.312 Y110.863 E-0.11642
G1 X142.758 Y110.629 E-0.11642
G1 X143.248 Y110.508 E-0.11642
G1 X143.752 Y110.508 E-0.11641
G1 X144.242 Y110.629 E-0.11642
G1 X144.688 Y110.863 E-0.11642
G1 X145.065 Y111.197 E-0.11642
G1 X145.352 Y111.612 E-0.11642
G1 X145.531 Y112.084 E-0.11642
G1 X145.591 Y112.584 E-0.11642
G1 X145.573 Y112.739 E-0.03593
G1 E-0.07000 F2100.00000
G1 Z0.400 F10800.000
G1 X143.294 Y98.683
G1 Z0.200
G1 E1.40000 F2100.00000
G1 F1200
G1 X142.893 Y98.584 E0.01294
G1 X142.528 Y98.393 E0.01294
G1 X142.219 Y98.119 E0.01294
G1 X141.985 Y97.779 E0.01294
G1 X141.838 Y97.394 E0.01294
G1 X141.788 Y96.984 E0.01294
G1 X141.838 Y96.575 E0.01294
G1 X141.985 Y96.189 E0.01294
G1 X142.219 Y95.849 E0.01294
G1 X142.528 Y95.576 E0.01294
G1 X142.893 Y95.384 E0.01294
G1 X143.294 Y95.285 E0.01294
G1 X143.706 Y95.285 E0.01294
G1 X144.107 Y95.384 E0.01294
G1 X144.472 Y95.576 E0.01294
G1 X144.781 Y95.849 E0.01294
G1 X145.015 Y96.189 E0.01294
G1 X145.162 Y96.575 E0.01294
G1 X145.212 Y96.984 E0.01294
G1 X145.162 Y97.394 E0.01294
G1 X145.015 Y97.780 E0.01294
G1 X144.781 Y98.119 E0.01294
G1 X144.472 Y98.393 E0.01294
G1 X144.107 Y98.584 E0.01294
G1 X143.706 Y98.683 E0.01294
G1 X143.354 Y98.683 E0.01106
G1 X143.053 Y99.003 F10800.000
G1 X143.248 Y99.060
G1 F1200
G1 X142.758 Y98.940 E0.01581
G1 X142.312 Y98.705 E0.01581
G1 X141.935 Y98.371 E0.01581
G1 X141.648 Y97.956 E0.01581
G1 X141.469 Y97.485 E0.01581
G1 X141.409 Y96.984 E0.01581
G1 X141.469 Y96.484 E0.01581
G1 X141.648 Y96.012 E0.01581
G1 X141.935 Y95.597 E0.01581
G1 X142.312 Y95.263 E0.01581
G1 X142.758 Y95.029 E0.01581
G1 X143.248 Y94.908 E0.01581
G1 X143.752 Y94.908 E0.01581
G1 X144.242 Y95.029 E0.01581
G1 X144.688 Y95.263 E0.01581
G1 X145.065 Y95.597 E0.01581
G1 X145.352 Y96.012 E0.01581
G1 X145.531 Y96.484 E0.01581
G1 X145.591 Y96.984 E0.01581
G1 X145.531 Y97.485 E0.01581
G1 X145.352 Y97.956 E0.01581
G1 X145.065 Y98.371 E0.01581
G1 X144.688 Y98.705 E0.01581
G1 X144.242 Y98.940 E0.01581
G1 X143.752 Y99.060 E0.01581
G1 X143.308 Y99.060 E0.01393
G1 F8640
G1 X142.758 Y98.940 E-0.12991
G1 X142.312 Y98.705 E-0.11642
G1 X141.935 Y98.371 E-0.11642
G1 X141.648 Y97.956 E-0.11642
G1 X141.469 Y97.485 E-0.11642
G1 X141.409 Y96.984 E-0.11642
G1 X141.469 Y96.484 E-0.11642
G1 X141.648 Y96.012 E-0.11642
G1 X141.935 Y95.597 E-0.11642
G1 X142.312 Y95.263 E-0.11642
G1 X142.758 Y95.029 E-0.11642
G1 X142.909 Y94.991 E-0.03593
G1 E-0.07000 F2100.00000
G1 Z0.400 F10800.000
G1 X108.212 Y96.984
